public/apps/atelier-des-idees/src/img/icn_20px_thumb_green.svg

<svg xmlns="http://www.w3.org/2000/svg" width="20" height="20" viewBox="0 0 20 20"><path fill="#1dd16e" d="M1,17 L4.27272727,17 L4.27272727,7.4 L1,7.4 L1,17 Z M19,8.2 C19,7.32 18.2636364,6.6 17.3636364,6.6 L12.2090909,6.6 L13.0272727,2.92 C13.0272727,2.84 13.0272727,2.76 13.0272727,2.68 C13.0272727,2.36 12.8636364,2.04 12.7000321,1.8 L11.8,1 L6.4,6.28 C6.07272727,6.52 5.90909091,6.92 5.90909091,7.4 L5.90909091,15.4 C5.90909091,16.28 6.64545455,17 7.54545455,17 L14.9090909,17 C15.5636364,17 16.1363636,16.6 16.3818182,16.04 L18.8363636,10.3599686 C18.9181818,10.1999686 18.9181818,9.95996863 18.9181818,9.79996863 L18.9181818,8.19996863 L19,8.19996863 C19,8.28 19,8.2 19,8.2 Z"/></svg>

<svg viewBox="0 0 20 20"><path fill="#1dd16e" d="M1 17h3.273V7.4H1V17zm18-8.8c0-.88-.736-1.6-1.636-1.6h-5.155l.818-3.68v-.24c0-.32-.163-.64-.327-.88l-.9-.8-5.4 5.28c-.327.24-.49.64-.49 1.12v8c0 .88.735 1.6 1.635 1.6h7.364c.655 0 1.227-.4 1.473-.96l2.454-5.68c.082-.16.082-.4.082-.56V8.2H19c0 .08 0 0 0 0z"/></svg>
